lib/brands/icons/adobe-photoshop-camera.svg

<svg xmlns="http://www.w3.org/2000/svg" fill="none" aria-hidden="true" viewBox="0 0 48 48"><g id="adobe-photoshop-camera-Icon"><g id="Group"><path id="bg" fill="#001E36" d="M5.99902 19.0286C5.99902 14.4681 5.99902 12.1879 6.88654 10.4461C7.66722 8.9139 8.91292 7.6682 10.4451 6.88752C12.187 6 14.4672 6 19.0276 6H28.9705C33.5309 6 35.8111 6 37.5529 6.88752C39.0851 7.6682 40.3308 8.9139 41.1115 10.4461C41.999 12.1879 41.999 14.4681 41.999 19.0286V28.9714C41.999 33.5319 41.999 35.8121 41.1115 37.5539C40.3308 39.0861 39.0851 40.3318 37.5529 41.1125C35.8111 42 33.5309 42 28.9705 42H19.0276C14.4672 42 12.187 42 10.4451 41.1125C8.91292 40.3318 7.66722 39.0861 6.88654 37.5539C5.99902 35.8121 5.99902 33.5319 5.99902 28.9714V19.0286Z"/><g id="Vector"><path fill="#31A8FF" d="M13.9687 15.243C12.5565 15.243 11.1439 15.2772 9.73292 15.2772C9.64612 15.2772 9.60254 15.3354 9.60254 15.4505V31.2058C9.60254 31.338 9.65309 31.4428 9.75467 31.4428L12.3828 31.4436C12.5131 31.4436 12.5783 31.3694 12.5784 31.2209V26.4081C16.4018 26.4081 19.8548 25.2434 19.8559 20.7141C19.8684 17.2025 17.2156 15.2436 13.9687 15.243ZM15.3698 23.1898C14.4942 23.4914 13.4965 23.4934 12.5784 23.4126V18.2879C13.5708 18.1676 14.7185 18.1367 15.6414 18.548C16.4873 18.942 16.9261 19.8602 16.9014 20.7884C16.9014 21.8742 16.412 22.8272 15.3698 23.1898Z"/><path fill="#31A8FF" d="M24.7867 23.8583C24.2806 23.629 23.2609 23.2557 23.2443 22.5461C23.2429 21.8233 24.0309 21.6875 24.5911 21.7044C25.5427 21.7087 26.5293 21.9196 27.353 22.4224C27.4576 22.4993 27.5779 22.3894 27.5703 22.2738V19.7735C27.5708 19.6469 27.551 19.4986 27.4181 19.4515C26.5878 19.0118 25.574 18.9481 24.6565 18.9564C23.7006 18.9564 22.904 19.1379 22.2667 19.501C21.0922 20.1333 20.3926 21.4195 20.3985 22.7689C20.383 23.8915 20.8713 24.9481 21.7344 25.6406C22.3201 26.1045 22.9676 26.4796 23.6572 26.7547C24.2138 26.9895 25.2599 27.3157 25.3081 28.0915C25.3305 28.8584 24.3765 28.958 23.8308 28.958C22.71 28.9408 21.5579 28.6263 20.6228 27.9828C20.5215 27.9321 20.4086 28.0233 20.4216 28.1348V30.8085C20.4268 30.9235 20.4985 31.0308 20.6011 31.0773C21.561 31.5882 22.6937 31.7676 23.7657 31.7555C26.0546 31.7555 28.2959 30.4507 28.2409 27.8439C28.279 25.7115 26.5521 24.5344 24.7867 23.8583Z"/><path fill="#31A8FF" d="M38.2112 16.8616C37.421 16.5343 36.5216 16.5001 35.68 16.509C31.3586 16.509 28.5001 19.8231 28.5001 24.1673C28.4479 28.3554 31.1271 31.7537 35.3475 31.7363C36.2703 31.7402 37.2368 31.6725 38.1046 31.3272C38.2555 31.2557 38.3459 31.0872 38.3241 30.9182V28.6233C38.3449 28.4334 38.2027 28.347 38.0139 28.4196C37.2666 28.707 36.4511 28.7461 35.6605 28.7411C33.0883 28.7259 31.4557 26.6401 31.5007 24.0781C31.4422 21.6093 33.0737 19.5383 35.6018 19.4152C36.448 19.3739 37.3351 19.498 38.0881 19.9052C38.2445 20.0014 38.3871 19.8371 38.3714 19.6768V17.2257C38.386 17.0861 38.323 16.9428 38.2112 16.8616Z"/></g></g></g></svg>

<svg xmlns="http://www.w3.org/2000/svg" fill="none" aria-hidden="true" viewBox="0 0 48 48"><path fill="#001E36" d="M5.999 19.029c0-4.56 0-6.841.888-8.583a8.143 8.143 0 0 1 3.558-3.558C12.187 6 14.467 6 19.028 6h9.943c4.56 0 6.84 0 8.582.888a8.143 8.143 0 0 1 3.559 3.558c.887 1.742.887 4.022.887 8.583v9.942c0 4.56 0 6.841-.888 8.583a8.143 8.143 0 0 1-3.558 3.558C35.81 42 33.53 42 28.97 42h-9.943c-4.56 0-6.841 0-8.583-.888a8.143 8.143 0 0 1-3.558-3.558c-.888-1.742-.888-4.022-.888-8.583V19.03Z"/><path fill="#31A8FF" d="M13.97 15.243c-1.413 0-2.826.034-4.237.034-.086 0-.13.058-.13.174v15.755c0 .132.05.237.152.237h2.628c.13 0 .196-.074.196-.222v-4.813c3.823 0 7.276-1.165 7.277-5.694.013-3.511-2.64-5.47-5.887-5.471Zm1.4 7.947c-.875.301-1.873.303-2.791.223v-5.125c.992-.12 2.14-.151 3.063.26.846.394 1.285 1.312 1.26 2.24 0 1.086-.49 2.04-1.532 2.402Zm9.417.668c-.506-.229-1.526-.602-1.542-1.312-.002-.723.786-.858 1.347-.842.951.005 1.938.216 2.762.718.104.077.224-.033.217-.148v-2.5c0-.127-.02-.275-.152-.323-.83-.44-1.845-.503-2.762-.495-.956 0-1.753.182-2.39.545-1.174.632-1.874 1.918-1.868 3.268a3.603 3.603 0 0 0 1.336 2.872 7.68 7.68 0 0 0 1.923 1.114c.556.235 1.602.56 1.65 1.337.023.766-.931.866-1.477.866-1.12-.017-2.273-.332-3.208-.975-.101-.05-.214.04-.201.152v2.673a.315.315 0 0 0 .18.27c.96.51 2.092.69 3.164.678 2.29 0 4.53-1.305 4.475-3.912.038-2.133-1.688-3.31-3.454-3.986Zm13.425-6.996c-.79-.328-1.69-.362-2.532-.353-4.32 0-7.18 3.314-7.18 7.658-.052 4.188 2.628 7.587 6.848 7.57.923.003 1.89-.064 2.757-.41a.4.4 0 0 0 .22-.409v-2.295c.02-.19-.122-.276-.31-.203-.748.287-1.563.326-2.354.321-2.572-.015-4.205-2.1-4.16-4.663-.058-2.469 1.573-4.54 4.101-4.663.847-.041 1.734.083 2.487.49.156.096.299-.068.283-.228v-2.451a.405.405 0 0 0-.16-.364Z"/></svg>
